X: 4189
T: FATHER O'FLYNN
R: Jig
%R: jig
B: James Kerr "Merry Melodies" v.4 p.22 #189
Z: 2016 John Chambers <jc:trillian.mit.edu>
M: 6/8
L: 1/8
K: D
uA |\
dAF DFA | ded cBA | dcd efg | fed cBA |\
dAF DFA | ded cBA | dcd efg | fdd d2 :|
|: e |\
fgf fga | efe e2c | dcd Bed | cAA A2A |\
BGB Bcd | AFD DFA | dcd efg | fdd d2 :|

%%sep 1 1 500
%%sep 1 1 500

